!! 00000] TT[WS
!!!OTL: Wan yangjiao cong
!!!ARE: Asia, China, Shanxi Ningwu
!! Ethnic Group: Han
!! WI, 146 (1)
!!!SCT: J0175
!!!YEM: Copyright 1995, estate of Helmut Schaffrath.
**kern
*ICvox
*Ivox
!! Mixed meters:  2/4; 3/4
*M3/4
*k[]
*C:
{4g
4A
=1
8c
4c
8A
=2
8a
4a
16e
16g
=3
2d
=4
8B
16A
16G
4d
=5
8g
16e
16g
4d}
=6
{4A
4A
=7
8d
8B
8A
8A
4r
=8
*M2/4
8c
16c
16e
4d
=9
8B
16A
16G
4d
=10
8A
8d
8d
16B
16A
=11
2G}
==
!!!AGN: Xiaodiao. Qingge
!!!ONB: ESAC (Essen Associative Code) Database: CHINA
!!!AMT: irregular
!!!AIN: vox
!!!EED: Helmut Schaffrath
!!!EEV: 1.0
*-
